X: 10513
Q: "Briskly."
M: 6/8
L: 1/8
K: B
!segno!Bcd |\
c2F c2F | (d3 f2)d | (c2c) (cd)c | "^Fin."B2z H|]\
=E2E c2c | c2A FGA |
_E3 EGF | D2D BAB | c2B (BA)B | c2z zFF |\
e3 ecd | (B2d) FFF | e3 ecd | B2z z2d |\
d2c (cB)G | (A2c) F2d | d2d (cB)G | F2"^D.C."z |]


